X:56
T:Tarbolton Reel
N:Allan's   #56  pp14
N:Trad/Anon.
B:Allan's Irish Fiddler (pub. Mozart Allen,  Glascow) date unknown
Z:FROM ALLAN'S TO NOTEWORTHY, FROM NOTEWORTHY TO ABC, MIDI AND .TXT BY VINCE
BRENNAN Dec. 2002 (HTTP://WWW.SOSYOURMOM.COM)
I:abc2nwc
M:2/2
L:1/8
K:G
FE|ee^d e2(AF)|GBAF GEEF|Ddd^c d2(AF)|GBAG (FD) D2|
Eee^d efge|fcdf edBA|GABG F2 ((3ABc)|BGAF (GE) E:|
|:f|gfef gebe| gebf geec|defg a2(AF)|GBAG FDDF|
G2BG FGAF|Eeef gfed|(Bc)  ((3dcB) AGFA|BGAF (GE) E:|
